src/assets/benefits/icon-2.svg

<svg width="48" height="48" viewBox="0 0 48 48" fill="none" xmlns="http://www.w3.org/2000/svg">
<rect width="48" height="48" rx="12" fill="#FFC876"/>
<path fill-rule="evenodd" clip-rule="evenodd" d="M30 33H18C16.3432 33 15 31.6569 15 30V18C15 16.3432 16.3432 15 18 15H30C31.6569 15 33 16.3432 33 18V30C33 31.6569 31.6569 33 30 33ZM29 20.4142L24.4142 25H26C26.5523 25 27 25.4477 27 26C27 26.5523 26.5523 27 26 27H22C21.4477 27 21 26.5523 21 26V22C21 21.4477 21.4477 21 22 21C22.5523 21 23 21.4477 23 22V23.5858L27.5858 19H26C25.4477 19 25 18.5523 25 18C25 17.4477 25.4477 17 26 17H30C30.5523 17 31 17.4477 31 18V22C31 22.5523 30.5523 23 30 23C29.4477 23 29 22.5523 29 22V20.4142Z" fill="#0E0C15"/>
</svg>

<svg width="48" height="48" fill="none" xmlns="http://www.w3.org/2000/svg"><rect width="48" height="48" rx="12" fill="#FFC876"/><path fill-rule="evenodd" clip-rule="evenodd" d="M30 33H18a3 3 0 0 1-3-3V18a3 3 0 0 1 3-3h12a3 3 0 0 1 3 3v12a3 3 0 0 1-3 3Zm-1-12.586L24.414 25H26a1 1 0 1 1 0 2h-4a1 1 0 0 1-1-1v-4a1 1 0 1 1 2 0v1.586L27.586 19H26a1 1 0 1 1 0-2h4a1 1 0 0 1 1 1v4a1 1 0 1 1-2 0v-1.586Z" fill="#0E0C15"/></svg>
